Sources/FrostedUI/Resources/Icons.xcassets/barChart12.imageset/bar-chart-12.svg

<svg width="12" height="12" viewBox="0 0 12 12" fill="none" xmlns="http://www.w3.org/2000/svg" data-fui-icon="true">
  <path
    d="M1.25 8C1.66421 8 2 8.33579 2 8.75V10.25C2 10.6642 1.66421 11 1.25 11C0.835787 11 0.5 10.6642 0.5 10.25V8.75C0.5 8.33579 0.835787 8 1.25 8ZM4.25 3.5C4.66421 3.5 5 3.83579 5 4.25V10.25C5 10.6642 4.66421 11 4.25 11C3.83579 11 3.5 10.6642 3.5 10.25V4.25C3.5 3.83579 3.83579 3.5 4.25 3.5ZM7.25 5C7.66421 5 8 5.33579 8 5.75V10.25C8 10.6642 7.66421 11 7.25 11C6.83579 11 6.5 10.6642 6.5 10.25V5.75C6.5 5.33579 6.83579 5 7.25 5ZM10.25 1C10.6642 1 11 1.33579 11 1.75V10.25C11 10.6642 10.6642 11 10.25 11C9.83579 11 9.5 10.6642 9.5 10.25V1.75C9.5 1.33579 9.83579 1 10.25 1Z"
    fill="currentColor"
  />
</svg>

<svg xmlns="http://www.w3.org/2000/svg" width="12" height="12" fill="none" data-fui-icon="true" viewBox="0 0 12 12"><path fill="currentColor" d="M1.25 8a.75.75 0 0 1 .75.75v1.5a.75.75 0 0 1-1.5 0v-1.5A.75.75 0 0 1 1.25 8m3-4.5a.75.75 0 0 1 .75.75v6a.75.75 0 0 1-1.5 0v-6a.75.75 0 0 1 .75-.75m3 1.5a.75.75 0 0 1 .75.75v4.5a.75.75 0 0 1-1.5 0v-4.5A.75.75 0 0 1 7.25 5m3-4a.75.75 0 0 1 .75.75v8.5a.75.75 0 0 1-1.5 0v-8.5a.75.75 0 0 1 .75-.75"/></svg>
